src/assets/icons/orders-icon.svg

<svg width="22" height="23" viewBox="0 0 22 23" fill="none" xmlns="http://www.w3.org/2000/svg">
<path d="M6.93641 23C6.30057 23 5.75626 22.7748 5.30346 22.3244C4.85067 21.874 4.62427 21.3325 4.62427 20.7C4.62427 20.0675 4.85067 19.526 5.30346 19.0756C5.75626 18.6252 6.30057 18.4 6.93641 18.4C7.57225 18.4 8.11656 18.6252 8.56936 19.0756C9.02215 19.526 9.24855 20.0675 9.24855 20.7C9.24855 21.3325 9.02215 21.874 8.56936 22.3244C8.11656 22.7748 7.57225 23 6.93641 23ZM17.3971 23C16.7613 23 16.2169 22.7748 15.7641 22.3244C15.3114 21.874 15.085 21.3325 15.085 20.7C15.085 20.0675 15.3114 19.526 15.7641 19.0756C16.2169 18.6252 16.7613 18.4 17.3971 18.4C18.0329 18.4 18.5772 18.6252 19.03 19.0756C19.4828 19.526 19.7092 20.0675 19.7092 20.7C19.7092 21.3325 19.4828 21.874 19.03 22.3244C18.5772 22.7748 18.0329 23 17.3971 23ZM5.95375 4.6L8.72831 10.35H15.7208L18.9 4.6H5.95375ZM4.85549 2.3H20.8075C21.2507 2.3 21.5878 2.49646 21.8191 2.88938C22.0503 3.28229 22.0599 3.68 21.848 4.0825L17.7439 11.4425C17.532 11.8258 17.2478 12.1229 16.8913 12.3338C16.5349 12.5446 16.1447 12.65 15.7208 12.65H8.20808L6.93641 14.95H19.7092V17.25H6.93641C6.06936 17.25 5.41425 16.8715 4.97109 16.1144C4.52793 15.3573 4.50867 14.605 4.91329 13.8575L6.47398 11.04L2.31214 2.3H0V1.19209e-07H3.75722L4.85549 2.3Z" fill="#FF8EB1"/>
</svg>

<svg xmlns="http://www.w3.org/2000/svg" width="22" height="23" fill="none" stroke="currentColor" viewBox="0 0 22 23"><path fill="currentColor" d="M6.936 23q-.953 0-1.633-.676a2.2 2.2 0 0 1-.679-1.624q0-.95.68-1.624.679-.675 1.632-.676.954 0 1.633.676.68.675.68 1.624t-.68 1.624T6.936 23m10.461 0q-.954 0-1.633-.676a2.2 2.2 0 0 1-.679-1.624q0-.95.68-1.624.678-.675 1.632-.676.954 0 1.633.676.68.675.68 1.624t-.68 1.624-1.633.676M5.954 4.6l2.774 5.75h6.993L18.9 4.6zM4.855 2.3h15.953q.665 0 1.011.59.346.588.029 1.192l-4.104 7.36q-.318.575-.853.892-.534.316-1.17.316H8.208l-1.272 2.3H19.71v2.3H6.936q-1.3 0-1.965-1.136-.664-1.135-.058-2.257l1.561-2.817L2.312 2.3H0V0h3.757z"/></svg>
